Newaita-dark/mimetypes/48/payment-card-visa.svg

<svg height="48pt" viewBox="0 0 48 48" width="48pt" xmlns="http://www.w3.org/2000/svg" xmlns:xlink="http://www.w3.org/1999/xlink"><linearGradient id="a" gradientUnits="userSpaceOnUse" x1="24.807067" x2="24.807067" y1="39.0740565" y2="41.05862231253"><stop offset="0" stop-opacity=".27451"/><stop offset="1" stop-opacity="0"/></linearGradient><linearGradient id="b"><stop offset="0" stop-opacity=".313725"/><stop offset=".222222" stop-opacity=".27451"/><stop offset="1" stop-opacity="0"/></linearGradient><radialGradient id="c" cx="450.90894" cy="189.57936" gradientTransform="matrix(.00000026 -.117199 -.210958 -.00000015 80.18054 92.416155)" gradientUnits="userSpaceOnUse" r="21.166656" xlink:href="#b"/><radialGradient id="d" cx="450.90894" cy="189.57936" gradientTransform="matrix(-.00000026 .117199 .210958 .00000015 -32.550992 -14.268065)" gradientUnits="userSpaceOnUse" r="21.166656" xlink:href="#b"/><radialGradient id="e" cx="450.90894" cy="189.57936" gradientTransform="matrix(-.00000026 -.117199 .210958 -.00000015 -32.550992 92.416155)" gradientUnits="userSpaceOnUse" r="21.166656" xlink:href="#b"/><radialGradient id="f" cx="450.90894" cy="189.57936" gradientTransform="matrix(.00000026 .117199 -.210958 .00000015 80.180537 -14.268066)" gradientUnits="userSpaceOnUse" r="21.166656" xlink:href="#b"/><linearGradient id="g" gradientUnits="userSpaceOnUse" x1="23.814786" x2="23.814786" y1="46.02003312506" y2="2.35959181253"><stop offset="0" stop-color="#bdbdbd"/><stop offset="1" stop-color="#e0e0e0"/></linearGradient><linearGradient id="h"><stop offset="0" stop-color="#ffb74d"/><stop offset="1" stop-color="#ffa726"/></linearGradient><linearGradient id="i" gradientTransform="matrix(.093759 0 0 -.093759 0 28.221423)" gradientUnits="userSpaceOnUse" x1="254" x2="254" xlink:href="#h" y1="201.75" y2="-115.75"/><linearGradient id="j"><stop offset="0" stop-color="#5c6bc0"/><stop offset="1" stop-color="#7986cb"/></linearGradient><linearGradient id="k" gradientUnits="userSpaceOnUse" x1="23.814786" x2="23.814786" xlink:href="#j" y1="39.07407625" y2="9.30559375"/><linearGradient id="l" gradientUnits="userSpaceOnUse" x1="23.81481451157" x2="23.814816" xlink:href="#j" y1="39.0741097378" y2="9.30559221851"/><linearGradient id="m" gradientUnits="userSpaceOnUse" x1="14.88421403676" x2="14.88421436644" xlink:href="#h" y1="39.07397706018" y2="9.30560252779"/><path d="m6.945312 39.074219h33.738282v1.984375h-33.738282zm0 0" fill="url(#a)"/><path d="m40.683594 39.074219h3.96875v-1.984375h-3.96875zm0 0" fill="url(#c)"/><path d="m6.945312 39.074219h-3.96875v1.984375h3.96875zm0 0" fill="url(#d)"/><path d="m6.945312 39.074219h-3.96875v-1.984375h3.96875zm0 0" fill="url(#e)"/><path d="m40.683594 39.074219h3.96875v1.984375h-3.96875zm0 0" fill="url(#f)"/><path d="m5.953125 9.304688h35.722656c1.097657 0 1.984375.890624 1.984375 1.984374v25.800782c0 1.09375-.886718 1.984375-1.984375 1.984375h-35.722656c-1.09375 0-1.984375-.890625-1.984375-1.984375v-25.800782c0-1.09375.890625-1.984374 1.984375-1.984374zm0 0" fill="url(#g)"/><path d="m5.953125 39.074219c-1.097656 0-1.984375-.886719-1.984375-1.984375v-2.976563h39.691406v2.976563c0 1.097656-.886718 1.984375-1.984375 1.984375zm0 0" fill="url(#i)"/><path d="m5.953125 9.304688c-1.097656 0-1.984375.886718-1.984375 1.984374v2.976563h39.691406v-2.976563c0-1.097656-.886718-1.984374-1.984375-1.984374zm0 0" fill="url(#k)"/><path d="m5.953125 9.304688c-1.097656 0-1.984375.886718-1.984375 1.984374v.496094c0-1.097656.886719-1.984375 1.984375-1.984375h35.722656c1.097657 0 1.984375.886719 1.984375 1.984375v-.496094c0-1.097656-.886718-1.984374-1.984375-1.984374zm0 0" fill="#fff" fill-opacity=".588235"/><path d="m3.96875 36.609375v.480469c0 1.097656.886719 1.984375 1.984375 1.984375h35.722656c1.097657 0 1.984375-.886719 1.984375-1.984375v-.480469c0 1.101563-.886718 1.984375-1.984375 1.984375h-35.722656c-1.097656 0-1.984375-.882812-1.984375-1.984375zm0 0" fill-opacity=".235294"/><path d="m63.493937-115.759477h381.005282c11.707215 0 21.164646 9.499093 21.164646 21.164646v275.182054c0 11.665553-9.457431 21.164646-21.164646 21.164646h-381.005282c-11.665553 0-21.164646-9.499093-21.164646-21.164646v-275.182054c0-11.665553 9.499093-21.164646 21.164646-21.164646zm0 0" fill="none" stroke="#212121" stroke-linecap="round" stroke-linejoin="round" stroke-width="3" transform="matrix(.093759 0 0 .093759 0 20.158175)"/><path d="m26.914062 20.304688c-1.984374 0-3.378906 1.058593-3.390624 2.570312-.015626 1.117188 1.003906 1.738281 1.761718 2.109375.777344.378906 1.042969.628906 1.042969.96875-.007813.519531-.628906.757813-1.207031.757813-.800782 0-1.230469-.121094-1.886719-.414063l-.261719-.121094-.28125 1.742188c.46875.214843 1.339844.40625 2.238282.414062 2.109374 0 3.484374-1.042969 3.5-2.652343.007812-.886719-.53125-1.5625-1.6875-2.117188-.703126-.355469-1.132813-.597656-1.132813-.960938.007813-.328124.363281-.667968 1.15625-.667968.652344-.015625 1.132813.140625 1.496094.296875l.183593.082031.273438-1.679688c-.398438-.15625-1.027344-.328124-1.804688-.328124zm-9.167968.140624-1.96875 5.300782-.214844-1.078125c-.363281-1.238281-1.503906-2.585938-2.777344-3.257813l1.800782 6.796875h2.125l3.160156-7.761719zm2.933594 0-1.257813 7.773438h2.011719l1.257812-7.773438zm11.636718 0c-.480468 0-.84375.140626-1.050781.644532l-2.984375 7.125h2.109375s.34375-.957032.417969-1.164063h2.582031c.058594.273438.238281 1.164063.238281 1.164063h1.863282l-1.621094-7.769532zm.140625 2.097657.140625.671875s.378906 1.859375.460938 2.25h-1.667969c.164063-.449219.800781-2.175782.800781-2.175782-.007812.015626.164063-.453124.265625-.746093zm0 0" fill="url(#l)"/><path d="m13.949219 20.445312h-3.234375l-.03125.15625c2.523437.644532 4.191406 2.199219 4.878906 4.070313l-.703125-3.574219c-.117187-.496094-.472656-.636718-.910156-.652344zm0 0" fill="url(#m)"/><g fill="none" stroke="#212121" stroke-width="3" transform="matrix(.093759 0 0 .093759 0 20.158175)"><path d="m63.493937 201.751869c-11.707216 0-21.164646-9.45743-21.164646-21.164646v-31.746968h423.334574v31.746968c0 11.707216-9.457431 21.164646-21.164646 21.164646zm0 0" stroke-linecap="round" stroke-linejoin="round"/><path d="m63.493937-115.759477c-11.707216 0-21.164646 9.45743-21.164646 21.164646v31.746968h423.334574v-31.746968c0-11.707216-9.457431-21.164646-21.164646-21.164646zm0 0" stroke-linecap="round" stroke-linejoin="round"/><path d="m287.055921 1.562653c-21.164646 0-36.038225 11.290588-36.163213 27.414048-.166651 11.915529 10.70731 18.539897 18.789872 22.497852 8.290875 4.041281 11.123938 6.707693 11.123938 10.332347-.083326 5.541137-6.707693 8.082561-12.873771 8.082561-8.540851 0-13.123747-1.291543-20.123078-4.416245l-2.7914-1.291543-2.999714 18.581559c4.999523 2.291448 14.290302 4.332919 23.87272 4.416245 22.497852 0 37.163118-11.123938 37.329769-28.288966.083325-9.45743-5.666126-16.665075-17.998281-22.581177-7.499284-3.791304-12.08218-6.374391-12.08218-10.249021.083325-3.499666 3.87463-7.124319 12.332156-7.124319 6.957669-.166651 12.082179 1.499856 15.956809 3.166364l1.958147.874916 2.916388-17.914956c-4.249594-1.666507-10.957287-3.499665-19.248162-3.499665zm-97.782329 1.499856-20.997995 56.536268-2.291448-11.498902c-3.87463-13.207072-16.040135-27.580699-29.622171-34.746682l19.206499 72.493078h22.664503l33.705114-82.783762zm31.288679 0-13.415386 82.90875h21.456284l13.415386-82.90875zm124.113147 0c-5.12451 0-8.99914 1.499857-11.207263 6.874344l-31.830293 75.992743h22.497851s3.666317-10.207359 4.457908-12.415481h27.539037c.62494 2.916388 2.541424 12.415481 2.541424 12.415481h19.873102l-17.290016-82.867087zm1.499857 22.372864 1.499857 7.165982s4.041281 19.83144 4.916197 23.997709h-17.789968c1.749833-4.79121 8.540851-23.206118 8.540851-23.206118-.083325.166651 1.749833-4.832871 2.833063-7.957573zm0 0"/><path d="m148.777459 3.062509h-34.496706l-.333301 1.666508c26.914096 6.874343 44.704064 23.456093 52.036697 43.412521l-7.499284-38.12136c-1.24988-5.291161-5.041185-6.791018-9.707406-6.957669zm0 0"/></g></svg>

<?xml version="1.0" encoding="UTF-8"?>
<svg xmlns="http://www.w3.org/2000/svg" xmlns:xlink="http://www.w3.org/1999/xlink" width="48pt" height="48pt" viewBox="0 0 48 48" version="1.1">
<defs>
<linearGradient id="linear0" gradientUnits="userSpaceOnUse" x1="254" y1="233.5" x2="254" y2="254.66667" gradientTransform="matrix(0.093759,0,0,0.093759,0.992281,17.18133)">
<stop offset="0" style="stop-color:rgb(0%,0%,0%);stop-opacity:0.27451;"/>
<stop offset="1" style="stop-color:rgb(0%,0%,0%);stop-opacity:0;"/>
</linearGradient>
<radialGradient id="radial0" gradientUnits="userSpaceOnUse" cx="450.90894" cy="189.57936" fx="450.90894" fy="189.57936" r="21.166656" gradientTransform="matrix(0.000000261256,-0.117199,-0.210958,-0.000000152308,80.18054,92.416155)">
<stop offset="0" style="stop-color:rgb(0%,0%,0%);stop-opacity:0.313725;"/>
<stop offset="0.222222" style="stop-color:rgb(0%,0%,0%);stop-opacity:0.27451;"/>
<stop offset="1" style="stop-color:rgb(0%,0%,0%);stop-opacity:0;"/>
</radialGradient>
<radialGradient id="radial1" gradientUnits="userSpaceOnUse" cx="450.90894" cy="189.57936" fx="450.90894" fy="189.57936" r="21.166656" gradientTransform="matrix(-0.000000261256,0.117199,0.210958,0.000000152308,-32.550992,-14.268065)">
<stop offset="0" style="stop-color:rgb(0%,0%,0%);stop-opacity:0.313725;"/>
<stop offset="0.222222" style="stop-color:rgb(0%,0%,0%);stop-opacity:0.27451;"/>
<stop offset="1" style="stop-color:rgb(0%,0%,0%);stop-opacity:0;"/>
</radialGradient>
<radialGradient id="radial2" gradientUnits="userSpaceOnUse" cx="450.90894" cy="189.57936" fx="450.90894" fy="189.57936" r="21.166656" gradientTransform="matrix(-0.000000261256,-0.117199,0.210958,-0.000000152308,-32.550992,92.416155)">
<stop offset="0" style="stop-color:rgb(0%,0%,0%);stop-opacity:0.313725;"/>
<stop offset="0.222222" style="stop-color:rgb(0%,0%,0%);stop-opacity:0.27451;"/>
<stop offset="1" style="stop-color:rgb(0%,0%,0%);stop-opacity:0;"/>
</radialGradient>
<radialGradient id="radial3" gradientUnits="userSpaceOnUse" cx="450.90894" cy="189.57936" fx="450.90894" fy="189.57936" r="21.166656" gradientTransform="matrix(0.000000261256,0.117199,-0.210958,0.000000152308,80.180537,-14.268066)">
<stop offset="0" style="stop-color:rgb(0%,0%,0%);stop-opacity:0.313725;"/>
<stop offset="0.222222" style="stop-color:rgb(0%,0%,0%);stop-opacity:0.27451;"/>
<stop offset="1" style="stop-color:rgb(0%,0%,0%);stop-opacity:0;"/>
</radialGradient>
<linearGradient id="linear1" gradientUnits="userSpaceOnUse" x1="254" y1="275.83334" x2="254" y2="-189.83333" gradientTransform="matrix(0.093759,0,0,0.093759,0,20.158175)">
<stop offset="0" style="stop-color:rgb(74.117647%,74.117647%,74.117647%);stop-opacity:1;"/>
<stop offset="1" style="stop-color:rgb(87.843137%,87.843137%,87.843137%);stop-opacity:1;"/>
</linearGradient>
<linearGradient id="linear2" gradientUnits="userSpaceOnUse" x1="254" y1="201.75" x2="254" y2="-115.75" gradientTransform="matrix(0.093759,0,0,-0.093759,0,28.221423)">
<stop offset="0" style="stop-color:rgb(100%,71.764706%,30.196078%);stop-opacity:1;"/>
<stop offset="1" style="stop-color:rgb(100%,65.490196%,14.901961%);stop-opacity:1;"/>
</linearGradient>
<linearGradient id="linear3" gradientUnits="userSpaceOnUse" x1="254" y1="201.75" x2="254" y2="-115.75" gradientTransform="matrix(0.093759,0,0,0.093759,0,20.158198)">
<stop offset="0" style="stop-color:rgb(36.078431%,41.960784%,75.294118%);stop-opacity:1;"/>
<stop offset="1" style="stop-color:rgb(47.45098%,52.54902%,79.607843%);stop-opacity:1;"/>
</linearGradient>
<linearGradient id="linear4" gradientUnits="userSpaceOnUse" x1="959.99994" y1="1575.118" x2="960" y2="375.1181" gradientTransform="matrix(0.0248071,0,0,0.0248071,0.00000000641566,0.00000000000000282)">
<stop offset="0" style="stop-color:rgb(36.078431%,41.960784%,75.294118%);stop-opacity:1;"/>
<stop offset="1" style="stop-color:rgb(47.45098%,52.54902%,79.607843%);stop-opacity:1;"/>
</linearGradient>
<linearGradient id="linear5" gradientUnits="userSpaceOnUse" x1="56.551823" y1="194.51547" x2="56.551826" y2="-76.367149" gradientTransform="matrix(0.109894,0,0,0.109894,8.669508,17.697894)">
<stop offset="0" style="stop-color:rgb(100%,71.764706%,30.196078%);stop-opacity:1;"/>
<stop offset="1" style="stop-color:rgb(100%,65.490196%,14.901961%);stop-opacity:1;"/>
</linearGradient>
</defs>
<g id="surface1">
<path style=" stroke:none;fill-rule:nonzero;fill:url(#linear0);" d="M 6.945312 39.074219 L 40.683594 39.074219 L 40.683594 41.058594 L 6.945312 41.058594 Z M 6.945312 39.074219 "/>
<path style=" stroke:none;fill-rule:nonzero;fill:url(#radial0);" d="M 40.683594 39.074219 L 44.652344 39.074219 L 44.652344 37.089844 L 40.683594 37.089844 Z M 40.683594 39.074219 "/>
<path style=" stroke:none;fill-rule:nonzero;fill:url(#radial1);" d="M 6.945312 39.074219 L 2.976562 39.074219 L 2.976562 41.058594 L 6.945312 41.058594 Z M 6.945312 39.074219 "/>
<path style=" stroke:none;fill-rule:nonzero;fill:url(#radial2);" d="M 6.945312 39.074219 L 2.976562 39.074219 L 2.976562 37.089844 L 6.945312 37.089844 Z M 6.945312 39.074219 "/>
<path style=" stroke:none;fill-rule:nonzero;fill:url(#radial3);" d="M 40.683594 39.074219 L 44.652344 39.074219 L 44.652344 41.058594 L 40.683594 41.058594 Z M 40.683594 39.074219 "/>
<path style=" stroke:none;fill-rule:nonzero;fill:url(#linear1);" d="M 5.953125 9.304688 L 41.675781 9.304688 C 42.773438 9.304688 43.660156 10.195312 43.660156 11.289062 L 43.660156 37.089844 C 43.660156 38.183594 42.773438 39.074219 41.675781 39.074219 L 5.953125 39.074219 C 4.859375 39.074219 3.96875 38.183594 3.96875 37.089844 L 3.96875 11.289062 C 3.96875 10.195312 4.859375 9.304688 5.953125 9.304688 Z M 5.953125 9.304688 "/>
<path style=" stroke:none;fill-rule:nonzero;fill:url(#linear2);" d="M 5.953125 39.074219 C 4.855469 39.074219 3.96875 38.1875 3.96875 37.089844 L 3.96875 34.113281 L 43.660156 34.113281 L 43.660156 37.089844 C 43.660156 38.1875 42.773438 39.074219 41.675781 39.074219 Z M 5.953125 39.074219 "/>
<path style=" stroke:none;fill-rule:nonzero;fill:url(#linear3);" d="M 5.953125 9.304688 C 4.855469 9.304688 3.96875 10.191406 3.96875 11.289062 L 3.96875 14.265625 L 43.660156 14.265625 L 43.660156 11.289062 C 43.660156 10.191406 42.773438 9.304688 41.675781 9.304688 Z M 5.953125 9.304688 "/>
<path style=" stroke:none;fill-rule:nonzero;fill:rgb(100%,100%,100%);fill-opacity:0.588235;" d="M 5.953125 9.304688 C 4.855469 9.304688 3.96875 10.191406 3.96875 11.289062 L 3.96875 11.785156 C 3.96875 10.6875 4.855469 9.800781 5.953125 9.800781 L 41.675781 9.800781 C 42.773438 9.800781 43.660156 10.6875 43.660156 11.785156 L 43.660156 11.289062 C 43.660156 10.191406 42.773438 9.304688 41.675781 9.304688 Z M 5.953125 9.304688 "/>
<path style=" stroke:none;fill-rule:nonzero;fill:rgb(0%,0%,0%);fill-opacity:0.235294;" d="M 3.96875 36.609375 L 3.96875 37.089844 C 3.96875 38.1875 4.855469 39.074219 5.953125 39.074219 L 41.675781 39.074219 C 42.773438 39.074219 43.660156 38.1875 43.660156 37.089844 L 43.660156 36.609375 C 43.660156 37.710938 42.773438 38.59375 41.675781 38.59375 L 5.953125 38.59375 C 4.855469 38.59375 3.96875 37.710938 3.96875 36.609375 Z M 3.96875 36.609375 "/>
<path style="fill:none;stroke-width:3;stroke-linecap:round;stroke-linejoin:round;stroke:rgb(12.941176%,12.941176%,12.941176%);stroke-opacity:1;stroke-miterlimit:4;" d="M 63.493937 -115.759477 L 444.499219 -115.759477 C 456.206434 -115.759477 465.663865 -106.260384 465.663865 -94.594831 L 465.663865 180.587223 C 465.663865 192.252776 456.206434 201.751869 444.499219 201.751869 L 63.493937 201.751869 C 51.828384 201.751869 42.329291 192.252776 42.329291 180.587223 L 42.329291 -94.594831 C 42.329291 -106.260384 51.828384 -115.759477 63.493937 -115.759477 Z M 63.493937 -115.759477 " transform="matrix(0.093759,0,0,0.093759,0,20.158175)"/>
<path style=" stroke:none;fill-rule:nonzero;fill:url(#linear4);" d="M 26.914062 20.304688 C 24.929688 20.304688 23.535156 21.363281 23.523438 22.875 C 23.507812 23.992188 24.527344 24.613281 25.285156 24.984375 C 26.0625 25.363281 26.328125 25.613281 26.328125 25.953125 C 26.320312 26.472656 25.699219 26.710938 25.121094 26.710938 C 24.320312 26.710938 23.890625 26.589844 23.234375 26.296875 L 22.972656 26.175781 L 22.691406 27.917969 C 23.160156 28.132812 24.03125 28.324219 24.929688 28.332031 C 27.039062 28.332031 28.414062 27.289062 28.429688 25.679688 C 28.4375 24.792969 27.898438 24.117188 26.742188 23.5625 C 26.039062 23.207031 25.609375 22.964844 25.609375 22.601562 C 25.617188 22.273438 25.972656 21.933594 26.765625 21.933594 C 27.417969 21.917969 27.898438 22.074219 28.261719 22.230469 L 28.445312 22.3125 L 28.71875 20.632812 C 28.320312 20.476562 27.691406 20.304688 26.914062 20.304688 Z M 17.746094 20.445312 L 15.777344 25.746094 L 15.5625 24.667969 C 15.199219 23.429688 14.058594 22.082031 12.785156 21.410156 L 14.585938 28.207031 L 16.710938 28.207031 L 19.871094 20.445312 Z M 20.679688 20.445312 L 19.421875 28.21875 L 21.433594 28.21875 L 22.691406 20.445312 Z M 32.316406 20.445312 C 31.835938 20.445312 31.472656 20.585938 31.265625 21.089844 L 28.28125 28.214844 L 30.390625 28.214844 C 30.390625 28.214844 30.734375 27.257812 30.808594 27.050781 L 33.390625 27.050781 C 33.449219 27.324219 33.628906 28.214844 33.628906 28.214844 L 35.492188 28.214844 L 33.871094 20.445312 Z M 32.457031 22.542969 L 32.597656 23.214844 C 32.597656 23.214844 32.976562 25.074219 33.058594 25.464844 L 31.390625 25.464844 C 31.554688 25.015625 32.191406 23.289062 32.191406 23.289062 C 32.183594 23.304688 32.355469 22.835938 32.457031 22.542969 Z M 32.457031 22.542969 "/>
<path style=" stroke:none;fill-rule:nonzero;fill:url(#linear5);" d="M 13.949219 20.445312 L 10.714844 20.445312 L 10.683594 20.601562 C 13.207031 21.246094 14.875 22.800781 15.5625 24.671875 L 14.859375 21.097656 C 14.742188 20.601562 14.386719 20.460938 13.949219 20.445312 Z M 13.949219 20.445312 "/>
<path style="fill:none;stroke-width:3;stroke-linecap:round;stroke-linejoin:round;stroke:rgb(12.941176%,12.941176%,12.941176%);stroke-opacity:1;stroke-miterlimit:4;" d="M 63.493937 201.751869 C 51.786721 201.751869 42.329291 192.294439 42.329291 180.587223 L 42.329291 148.840255 L 465.663865 148.840255 L 465.663865 180.587223 C 465.663865 192.294439 456.206434 201.751869 444.499219 201.751869 Z M 63.493937 201.751869 " transform="matrix(0.093759,0,0,0.093759,0,20.158175)"/>
<path style="fill:none;stroke-width:3;stroke-linecap:round;stroke-linejoin:round;stroke:rgb(12.941176%,12.941176%,12.941176%);stroke-opacity:1;stroke-miterlimit:4;" d="M 63.493937 -115.759477 C 51.786721 -115.759477 42.329291 -106.302047 42.329291 -94.594831 L 42.329291 -62.847863 L 465.663865 -62.847863 L 465.663865 -94.594831 C 465.663865 -106.302047 456.206434 -115.759477 444.499219 -115.759477 Z M 63.493937 -115.759477 " transform="matrix(0.093759,0,0,0.093759,0,20.158175)"/>
<path style="fill:none;stroke-width:3;stroke-linecap:butt;stroke-linejoin:miter;stroke:rgb(12.941176%,12.941176%,12.941176%);stroke-opacity:1;stroke-miterlimit:4;" d="M 287.055921 1.562653 C 265.891275 1.562653 251.017696 12.853241 250.892708 28.976701 C 250.726057 40.89223 261.600018 47.516598 269.68258 51.474553 C 277.973455 55.515834 280.806518 58.182246 280.806518 61.8069 C 280.723192 67.348037 274.098825 69.889461 267.932747 69.889461 C 259.391896 69.889461 254.809 68.597918 247.809669 65.473216 L 245.018269 64.181673 L 242.018555 82.763232 C 247.018078 85.05468 256.308857 87.096151 265.891275 87.179477 C 288.389127 87.179477 303.054393 76.055539 303.221044 58.890511 C 303.304369 49.433081 297.554918 42.225436 285.222763 36.309334 C 277.723479 32.51803 273.140583 29.934943 273.140583 26.060313 C 273.223908 22.560647 277.015213 18.935994 285.472739 18.935994 C 292.430408 18.769343 297.554918 20.43585 301.429548 22.102358 L 303.387695 22.977274 L 306.304083 5.062318 C 302.054489 3.395811 295.346796 1.562653 287.055921 1.562653 Z M 189.273592 3.062509 L 168.275597 59.598777 L 165.984149 48.099875 C 162.109519 34.892803 149.944014 20.519176 136.361978 13.353193 L 155.568477 85.846271 L 178.23298 85.846271 L 211.938094 3.062509 Z M 220.562271 3.062509 L 207.146885 85.971259 L 228.603169 85.971259 L 242.018555 3.062509 Z M 344.675418 3.062509 C 339.550908 3.062509 335.676278 4.562366 333.468155 9.936853 L 301.637862 85.929596 L 324.135713 85.929596 C 324.135713 85.929596 327.80203 75.722237 328.593621 73.514115 L 356.132658 73.514115 C 356.757598 76.430503 358.674082 85.929596 358.674082 85.929596 L 378.547184 85.929596 L 361.257168 3.062509 Z M 346.175275 25.435373 L 347.675132 32.601355 C 347.675132 32.601355 351.716413 52.432795 352.591329 56.599064 L 334.801361 56.599064 C 336.551194 51.807854 343.342212 33.392946 343.342212 33.392946 C 343.258887 33.559597 345.092045 28.560075 346.175275 25.435373 Z M 346.175275 25.435373 " transform="matrix(0.093759,0,0,0.093759,0,20.158175)"/>
<path style="fill:none;stroke-width:3;stroke-linecap:butt;stroke-linejoin:miter;stroke:rgb(12.941176%,12.941176%,12.941176%);stroke-opacity:1;stroke-miterlimit:4;" d="M 148.777459 3.062509 L 114.280753 3.062509 L 113.947452 4.729017 C 140.861548 11.60336 158.651516 28.18511 165.984149 48.141538 L 158.484865 10.020178 C 157.234985 4.729017 153.44368 3.22916 148.777459 3.062509 Z M 148.777459 3.062509 " transform="matrix(0.093759,0,0,0.093759,0,20.158175)"/>
</g>
</svg>
